X:1
T: The Green Shades of Gask
C:
R:Jig
Q:180
K:G
M:6/8
L:1/16
B2|G2A2G2 B2G2B2|g2a2g2 f4e2|d2g2d2 B2g2B2|a2A2A2 A4B2|G2A2G2 B2G2B2|g2a2g2 f4e2|d2c2B2 A2d2c2|B2G2G2 G4B2|
G2A2G2 B2G2B2|g2a2g2 f4e2|d2g2d2 B2g2B2|a2A2A2 A4B2|G2A2G2 B2G2B2|g2a2g2 f4e2|d2c2B2 A2d2c2|B2G2G2 G4d2|
g2a2g2 g2f2e2|a2b2a2 a2g2f2|g2f2g2 a2g2a2|b2e2e2 e4f2|g2a2g2 g2f2e2|a2b2a2 a2g2f2|g2f2e2 d2g2d2|B2G2G2 G4d2|
g2a2g2 g2f2e2|a2b2a2 a2g2f2|g2f2g2 a2g2a2|b2e2e2 e4f2|g2b2g2 e2g2e2|d2e2d2 g4e2|d2c2B2 A2d2c2|B2G2G2 G4||
